X: 269
T:Sally Hunter
% Nottingham Music Database
S:Trad, arr Phil Rowe
M:6/8
K:D
A|"D"DFA d2A|"G"B2A "D"d2A|"G"Bcd "Em"egf|"A7"efd cBA|
"D"DFA d2A|"G"B2A Bcd|"Em"egf "A7"edc|"D"d3 -d2:|
g|"D"fed "A"g2e|"D"a2f "G"b2g|"D"fef def|"A7"efd cBA|"D"fed "A"g2e|
"D"a2f "G"b2g|"D"fga "A7"Adc|"D"d3 -d2g|"D"fed "A"g2e|"D"a2f "G"b2g|"D"fef def\
|
"A7"efd cBA|"D"AFA d2A|"G"B2A Bcd|"Em"egf "A7"edc|"D"d3 -d2||<end>
<start>
